X:1
T:Hessian Dance. JJo.001, The
T:Swab. JJo.001, The
B:J.Johnson Choice Collection Vol 8 1758
Z:vmp.Simon Wilson 2013 www.village-music-project.org.uk
Z:Dance added by John Chambers 2017
M:3/8
L:1/8
%Q:3/8=60
K:G
|: gdB | G>AG | DEF | (G/F/G/A/)G | gdB | G>AG | DEF | G3 :|
|: def | g2e | (f/g/a/g/f/e/) | (d/e/d/c/B/A/) | def | g2c | B(A/G/)(A/F/) | G2G |
y2 def | g2e | (f/g/a/g/f/e/) | (d/e/d/c/B/A/) | def | g2c | BA/G/A/F/ | G2g :|
|: d2e | B2c | {B}AGF | GDg | d2e | B2c | {B}AGF | !fermata!G2g :|
%%begintext align
%% First Man cast off and turn the 3d Wo. .| 1st
%% Wo. cast off and turn the 3d Man :| Lead thro'
%% the Bottom and cast up :||. Lead thro' the top and
%% cast off :||:. the 1st and 3d Cu. foot it to the
%% Wall .:||: Right hands and Left at top .:||:.
%%endtext
